assets/svgs/valentine-color/ValentineColor24.svg

<svg xmlns="http://www.w3.org/2000/svg" data-name="Layer 1" viewBox="0 0 128 128"><path fill="#fff3f3" d="M28.086 34.148h71.828v65.767H28.086z"/><path fill="#fc574f" d="M28.086 34.148h71.828v13.784H28.086z"/><path fill="#fff3f3" d="M42.387 39.833a3.762 3.762 0 01-3.762-3.762v-4.223a3.762 3.762 0 013.762-3.762 3.762 3.762 0 013.762 3.762v4.223a3.762 3.762 0 01-3.762 3.762zM85.613 39.833a3.762 3.762 0 01-3.762-3.762v-4.223a3.762 3.762 0 013.762-3.762 3.762 3.762 0 013.762 3.762v4.223a3.762 3.762 0 01-3.762 3.762z"/><path fill="#30317b" d="M51.167 35.4H80.6v.674a5.012 5.012 0 0010.024 0v-4.226a5.012 5.012 0 00-10.024 0V32.9H51.167a1.25 1.25 0 000 2.5zm34.445-6.062a2.515 2.515 0 012.512 2.512v4.223a2.512 2.512 0 01-5.024 0v-4.225a2.515 2.515 0 012.513-2.512z"/><path fill="#30317b" d="M99.914 32.9H94.75a1.25 1.25 0 000 2.5h3.914v11.282H34.086a1.25 1.25 0 000 2.5h64.578v49.482H29.336V35.4h8.039v.674a5.012 5.012 0 1010.024 0v-4.226a5.012 5.012 0 10-10.024 0V32.9h-9.289a1.25 1.25 0 00-1.25 1.25v65.764a1.25 1.25 0 001.25 1.25h71.828a1.25 1.25 0 001.25-1.25V34.148a1.25 1.25 0 00-1.25-1.248zm-60.039-1.052a2.512 2.512 0 115.024 0v4.223a2.512 2.512 0 11-5.024 0z"/><path fill="#30317b" d="M58.159 84.462V62.445h-3.41a7.756 7.756 0 01-2.649 3.508 12.146 12.146 0 01-3.575 2.041v3.814a14.489 14.489 0 005.43-3.186v15.84zM73.221 62.445L63.709 76.37v3.68h8.974v4.412h4.069v-4.413h2.722v-3.694h-2.723v-13.91zm-.539 13.91h-5.04l5.041-7.493z"/></svg>

<svg id="Layer_1" data-name="Layer 1" xmlns="http://www.w3.org/2000/svg" viewBox="0 0 128 128"><title>VALENTINES DAY</title><rect x="28.086" y="34.148" width="71.828" height="65.767" style="fill:#fff3f3"/><rect x="28.086" y="34.148" width="71.828" height="13.784" style="fill:#fc574f"/><path d="M42.387,39.833h0a3.762,3.762,0,0,1-3.762-3.762V31.848a3.762,3.762,0,0,1,3.762-3.762h0a3.762,3.762,0,0,1,3.762,3.762v4.223A3.762,3.762,0,0,1,42.387,39.833Z" style="fill:#fff3f3"/><path d="M85.613,39.833h0a3.762,3.762,0,0,1-3.762-3.762V31.848a3.762,3.762,0,0,1,3.762-3.762h0a3.762,3.762,0,0,1,3.762,3.762v4.223A3.762,3.762,0,0,1,85.613,39.833Z" style="fill:#fff3f3"/><path d="M51.167,35.4H80.6v.674a5.012,5.012,0,0,0,10.024,0V31.848a5.012,5.012,0,0,0-10.024,0V32.9H51.167a1.25,1.25,0,0,0,0,2.5Zm34.445-6.062a2.515,2.515,0,0,1,2.512,2.512v4.223a2.512,2.512,0,0,1-5.024,0V31.848A2.515,2.515,0,0,1,85.613,29.336Z" style="fill:#30317b"/><path d="M99.914,32.9H94.75a1.25,1.25,0,0,0,0,2.5h3.914V46.682H34.086a1.25,1.25,0,0,0,0,2.5H98.664V98.664H29.336V35.4h8.039v.674a5.012,5.012,0,1,0,10.024,0V31.848a5.012,5.012,0,1,0-10.024,0V32.9H28.086a1.25,1.25,0,0,0-1.25,1.25V99.914a1.25,1.25,0,0,0,1.25,1.25H99.914a1.25,1.25,0,0,0,1.25-1.25V34.148A1.25,1.25,0,0,0,99.914,32.9ZM39.875,31.848a2.512,2.512,0,1,1,5.024,0v4.223a2.512,2.512,0,1,1-5.024,0Z" style="fill:#30317b"/><path d="M58.159,84.462V62.445h-3.41A7.756,7.756,0,0,1,52.1,65.953a12.146,12.146,0,0,1-3.575,2.041v3.814a14.489,14.489,0,0,0,5.43-3.186V84.462Z" style="fill:#30317b"/><path d="M73.221,62.445,63.709,76.37v3.68h8.974v4.412h4.069V80.049h2.722V76.355H76.751V62.445Zm-.539,13.91H67.642l5.041-7.493Z" style="fill:#30317b"/></svg>
